X: 28314
T: Mucky Bogs Of Crawcwellt, The
R: hornpipe
M: 4/4
K: Gmajor
GDBG dBgd|bgfg dBgd|caec BgdB|(3cBA (3BAG AF (3DEF|
GDBG dBgd|bg (3ggg dBgd|ec'ge dbgd|(3fed (3cBA G2:|
dg (3ggg bg (3ggg|dg (3ggg bagf|ea (3aaa c'a (3aaa|ea (3aaa (3c'ba (3gfe|
dg (3ggg bg (3ggg|dg (3ggg bagf|ec'ge dbgd|(3fed (3cBA G2:|

